X:229
T:Over the moor to Maggie
R:Reel
D:Oisin: Over the Moor to Maggie
D:Music at Matt Molloy's.
S:My arrangement from various web ABCs
Z:Transcription, arrangement, chords:Mike Long
M:C|
L:1/8
K:G
(3(DEF)|\
"G"~G2GA BGBd|"C"efge "G"dBAG|"Am"EAAG ABAG|"Am"EAAG "D"AcBA|\
"G"~G2GA BGBd|"C"efge "G"dBAG|
"C"EGGF "Am"GAGE|"D"DGGF "G"G2:|\
|:ga|\
"G"~b2bg "D"abaf|"C"~g2ge "G"d2Bd|"Am"eaag abag|"(C)"eaag "D"a2ga|
"G"bg~g2 "D"af~f2|"C"gage "G"d2Bd|"C"eggf "Am"gage|[1 "D"dggf "G"g2:|[2 "D"dggf "G"g2gf\
|:"C"~e3c "G"d2dB|"C"c2cA "G"B2AG|
"Am"EAAG ABAG|"Am"EAAG "D"ABcd|\
"C"~e3c "G"dedB|"Am"cA~A2 "G"B2AG|"C"EG~G2 "G"BGAG|[1 "C"EGGF "G"G2Bd:|[2 "C"EGGF "G"G2|]
